X:1
T:Bound to Australia
M:6/8
L:1/8
K:D
 z4 z E| DED DFA| GBd d2c/2-B/2| AGF FED| E3 F2 E| DED DFA| GBd d2 c|\
 AGF EDE| D3 z A2| AFA dAA| BGB dcB| AGF FED| E3 F2 E| DED DFA| GBd dc B/2B/2|\
 AGF EDE| D3 z3|
